packages/IcoMoon/src/BlockedIcon/index.svg

<svg version="1.1" xmlns="http://www.w3.org/2000/svg" width="16" height="16" viewBox="0 0 16 16">
<path d="M13.657 2.343c-1.511-1.511-3.52-2.343-5.657-2.343s-4.146 0.832-5.657 2.343c-1.511 1.511-2.343 3.52-2.343 5.657s0.832 4.146 2.343 5.657c1.511 1.511 3.52 2.343 5.657 2.343s4.146-0.832 5.657-2.343c1.511-1.511 2.343-3.52 2.343-5.657s-0.832-4.146-2.343-5.657zM14 8c0 1.294-0.412 2.494-1.111 3.475l-8.364-8.364c0.981-0.699 2.181-1.111 3.475-1.111 3.308 0 6 2.692 6 6zM2 8c0-1.294 0.412-2.494 1.111-3.475l8.364 8.364c-0.981 0.699-2.181 1.111-3.475 1.111-3.308 0-6-2.692-6-6z"></path>
</svg>

<svg xmlns="http://www.w3.org/2000/svg" viewBox="0 0 16 16">
  <path d="M13.657 2.343C12.146.832 10.137 0 8 0S3.854.832 2.343 2.343C.832 3.854 0 5.863 0 8s.832 4.146 2.343 5.657C3.854 15.168 5.863 16 8 16s4.146-.832 5.657-2.343C15.168 12.146 16 10.137 16 8s-.832-4.146-2.343-5.657zM14 8a5.97 5.97 0 01-1.111 3.475L4.525 3.111A5.97 5.97 0 018 2c3.308 0 6 2.692 6 6zM2 8a5.97 5.97 0 011.111-3.475l8.364 8.364A5.97 5.97 0 018 14c-3.308 0-6-2.692-6-6z"/>
</svg>
